src/assets/icons/facebook_line.svg

<svg  viewBox="0 0 24 24" fill="none" xmlns="http://www.w3.org/2000/svg">
<path d="M15.8481 6.63519H14.7584C12.8343 6.63519 11.2744 8.07698 11.2744 9.85551V13.3342M11.2744 13.3342V22M11.2744 13.3342H7.5684M11.2744 13.3342H15.0698M2 7V17C2 19.7614 4.23858 22 7 22H17C19.7614 22 22 19.7614 22 17V7C22 4.23858 19.7614 2 17 2H7C4.23858 2 2 4.23858 2 7Z" stroke="currentColor" stroke-linecap="round" stroke-linejoin="round"/>
</svg>

<svg  viewBox="0 0 24 24" fill="none" xmlns="http://www.w3.org/2000/svg">
    <path stroke="currentColor" stroke-linecap="round" stroke-linejoin="round"   d="M11.274 22H17a5 5 0 0 0 5-5V7a5 5 0 0 0-5-5H7a5 5 0 0 0-5 5v10a5 5 0 0 0 5 5h4.274Zm0 0v-8.666m4.574-6.699h-1.09c-1.924 0-3.484 1.442-3.484 3.22v3.48m0 0H7.568m3.706 0h3.796"/>
</svg>
